<?xml version="1.0" encoding="UTF-8"?>
<map version="1.10" tiledversion="1.10.2" orientation="orthogonal" renderorder="right-down" width="68" height="53" tilewidth="32" tileheight="32" infinite="0" nextlayerid="12" nextobjectid="10200">
 <editorsettings><export target="map.json" format="json"/></editorsettings>
 <tileset firstgid="1" name="FloorAndGround" tilewidth="32" tileheight="32" tilecount="2560" columns="64"><image source="FloorAndGround.png" width="2048" height="1280"/></tileset>
 <tileset firstgid="2561" name="chair" tilewidth="32" tileheight="64" tilecount="23" columns="1"><image source="../items/chair.png" width="32" height="1472"/></tileset>
 <tileset firstgid="2584" name="Modern_Office_Black_Shadow" tilewidth="32" tileheight="32" tilecount="848" columns="16"><image source="../items/Modern_Office_Black_Shadow.png" width="512" height="1696"/></tileset>
 <tileset firstgid="3432" name="Generic" tilewidth="32" tileheight="32" tilecount="1248" columns="16"><image source="../items/Generic.png" width="512" height="2496"/></tileset>
 <tileset firstgid="4680" name="computer" tilewidth="96" tileheight="64" tilecount="5" columns="5"><image source="../items/computer.png" width="480" height="64"/></tileset>
 <tileset firstgid="4685" name="whiteboard" tilewidth="64" tileheight="64" tilecount="3" columns="1"><image source="../items/whiteboard.png" width="64" height="192"/></tileset>
 <tileset firstgid="4688" name="Basement" tilewidth="32" tileheight="32" tilecount="800" columns="16"><image source="../items/Basement.png" width="512" height="1600"/></tileset>
 <tileset firstgid="5488" name="vendingmachine" tilewidth="48" tileheight="72" tilecount="1" columns="1"><image source="../items/vendingmachine.png" width="48" height="72"/></tileset>
 <imagelayer id="1" name="Gather Map" width="68" height="53"><image source="gather-map.png" width="2176" height="1696"/></imagelayer>
 <layer id="2" name="Ground" width="68" height="53"><data encoding="csv">0,0,0,0,0,0,0,0,0,0,0,0,0,0,0,0,0,0,0,0,0,0,0,0,0,0,0,0,0,0,0,0,0,0,0,0,0,0,0,0,0,0,0,0,0,0,0,0,0,0,0,0,0,0,0,0,0,0,0,0,0,0,0,0,0,0,0,0,0,0,0,0,0,0,0,0,0,0,0,0,0,0,0,0,0,0,0,0,0,0,0,0,0,0,0,0,0,0,0,0,0,0,0,0,0,0,0,0,0,0,0,0,0,0,0,0,0,0,0,0,0,0,0,0,0,0,0,0,0,0,0,0,0,0,0,0,0,0,0,0,0,0,0,0,0,0,0,0,0,0,0,0,0,0,0,0,0,0,0,0,0,0,0,0,0,0,0,0,0,0,0,0,0,0,0,0,0,0,0,0,0,0,0,0,0,0,0,0,0,0,0,0,0,0,0,0,0,0,0,0,0,0,0,0,0,0,0,0,0,0,0,0,0,0,0,0,0,0,0,0,0,0,0,0,0,0,0,0,0,0,0,0,0,0,0,0,0,0,0,0,0,0,0,0,0,0,0,0,0,0,0,0,0,0,0,0,0,0,0,0,0,0,0,0,0,0,0,0,0,0,0,0,0,0,0,0,0,0,0,0,0,0,0,0,0,0,0,0,0,0,0,0,0,0,0,0,0,0,0,0,0,0,0,0,0,0,0,0,0,0,0,0,0,0,0,0,0,0,0,0,0,0,0,0,0,0,0,0,0,0,0,0,0,0,0,0,0,0,0,0,0,0,0,0,0,0,0,0,0,0,0,0,0,0,0,0,0,0,0,0,0,0,0,0,0,0,0,0,0,0,0,0,0,0,0,0,0,0,0,0,0,0,0,0,0,0,0,0,0,0,0,0,0,0,0,0,0,0,0,0,0,0,0,0,0,0,0,0,0,0,0,0,0,0,0,0,0,0,0,0,0,0,0,0,0,0,0,0,0,0,0,0,0,0,0,0,0,0,0,0,0,0,0,0,0,0,0,0,0,0,0,0,0,0,0,0,0,0,0,0,0,0,0,0,0,0,0,0,0,0,0,0,0,0,0,0,0,0,0,0,0,0,0,0,0,0,0,0,0,0,0,0,0,0,0,0,0,0,0,0,0,0,0,0,0,0,0,0,0,0,0,0,0,0,0,0,0,0,0,0,0,0,0,0,0,0,0,0,0,0,0,0,0,0,0,0,0,0,0,0,0,0,0,0,0,0,0,0,0,0,0,0,0,0,0,0,0,0,0,0,0,0,0,0,0,0,0,0,0,0,0,0,0,0,0,0,0,0,0,0,0,0,0,0,0,0,0,0,0,0,0,0,0,0,0,0,0,0,0,0,0,0,0,0,0,0,0,0,0,0,0,0,0,0,0,0,0,0,0,0,0,0,0,0,0,0,0,0,0,0,0,0,0,0,0,0,0,0,0,0,0,0,0,0,0,0,0,0,0,0,0,0,0,0,0,0,0,0,0,0,0,0,0,0,0,0,0,0,0,0,0,0,0,0,0,0,0,0,0,0,0,0,0,0,0,0,0,0,0,0,0,0,0,0,0,0,0,0,0,0,0,0,0,0,0,0,0,0,0,0,0,0,0,0,0,0,0,0,0,0,0,0,0,0,0,0,0,0,0,0,0,0,0,0,0,0,0,0,0,0,0,0,0,0,0,0,0,0,0,0,0,0,0,0,0,0,0,0,0,0,0,0,0,0,0,0,0,0,0,0,0,0,0,0,0,0,0,0,0,0,0,0,0,0,0,0,0,0,0,0,0,0,0,0,0,0,0,0,0,0,0,0,0,0,0,0,0,0,0,0,0,0,0,0,0,0,0,0,0,0,0,0,0,0,0,0,0,0,0,0,0,0,0,0,0,0,0,0,0,0,0,0,0,0,0,0,0,0,0,0,0,0,0,0,0,0,0,0,0,0,0,0,0,0,0,0,0,0,0,0,0,0,0,0,0,0,0,0,0,0,0,0,0,0,0,0,0,0,0,0,0,0,0,0,0,0,0,0,0,0,0,0,0,0,0,0,0,0,0,0,0,0,0,0,0,0,0,0,0,0,0,0,0,0,0,0,0,0,0,0,0,0,0,0,0,0,0,0,0,0,0,0,0,0,0,0,0,0,0,0,0,0,0,0,0,0,0,0,0,0,0,0,0,0,0,0,0,0,0,0,0,0,0,0,0,0,0,0,0,0,0,0,0,0,0,0,0,0,0,0,0,0,0,0,0,0,0,0,0,0,0,0,0,0,0,0,0,0,0,0,0,0,0,0,0,0,0,0,0,0,0,0,0,0,0,0,0,0,0,0,0,0,0,0,0,0,0,0,0,0,0,0,0,0,0,0,0,0,0,0,0,0,0,0,0,0,0,0,0,0,0,0,0,0,0,0,0,0,0,0,0,0,0,0,0,0,0,0,0,0,0,0,0,0,0,0,0,0,0,0,0,0,0,0,0,0,0,0,0,0,0,0,0,0,0,0,0,0,0,0,0,0,0,0,0,0,0,0,0,0,0,0,0,0,0,0,0,0,0,0,0,0,0,0,0,0,0,0,0,0,0,0,0,0,0,0,0,0,0,0,0,0,0,0,0,0,0,0,0,0,0,0,0,0,0,0,0,0,0,0,0,0,0,0,0,0,0,0,0,0,0,0,0,0,0,0,0,0,0,0,0,0,0,0,0,0,0,0,0,0,0,0,0,0,0,0,0,0,0,0,0,0,0,0,0,0,0,0,0,0,0,0,0,0,0,0,0,0,0,0,0,0,0,0,0,0,0,0,0,0,0,0,0,0,0,0,0,0,0,0,0,0,0,0,0,0,0,0,0,0,0,0,0,0,0,0,0,0,0,0,0,0,0,0,0,0,0,0,0,0,0,0,0,0,0,0,0,0,0,0,0,0,0,0,0,0,0,0,0,0,0,0,0,0,0,0,0,0,0,0,0,0,0,0,0,0,0,0,0,0,0,0,0,0,0,0,0,0,0,0,0,0,0,0,0,0,0,0,0,0,0,0,0,0,0,0,0,0,0,0,0,0,0,0,0,0,0,0,0,0,0,0,0,0,0,0,0,0,0,0,0,0,0,0,0,0,0,0,0,0,0,0,0,0,0,0,0,0,0,0,0,0,0,0,0,0,0,0,0,0,0,0,0,0,0,0,0,0,0,0,0,0,0,0,0,0,0,0,0,0,0,0,0,0,0,0,0,0,0,0,0,0,0,0,0,0,0,0,0,0,0,0,0,0,0,0,0,0,0,0,0,0,0,0,0,0,0,0,0,0,0,0,0,0,0,0,0,0,0,0,0,0,0,0,0,0,0,0,0,0,0,0,0,0,0,0,0,0,0,0,0,0,0,0,0,0,0,0,0,0,0,0,0,0,0,0,0,0,0,0,0,0,0,0,0,0,0,0,0,0,0,0,0,0,0,0,0,0,0,0,0,0,0,0,0,0,0,0,0,0,0,0,0,0,0,0,0,0,0,0,0,0,0,0,0,0,0,0,0,0,0,0,0,0,0,0,0,0,0,0,0,0,0,0,0,0,0,0,0,0,0,0,0,0,0,0,0,0,0,0,0,0,0,0,0,0,0,0,0,0,0,0,0,0,0,0,0,0,0,0,0,0,0,0,0,0,0,0,0,0,0,0,0,0,0,0,0,0,0,0,0,0,0,0,0,0,0,0,0,0,0,0,0,0,0,0,0,0,0,0,0,0,0,0,0,0,0,0,0,0,0,0,0,0,0,0,0,0,0,0,0,0,0,0,0,0,0,0,0,0,0,0,0,0,0,0,0,0,0,0,0,0,0,0,0,0,0,0,0,0,0,0,0,0,0,0,0,0,0,0,0,0,0,0,0,0,0,0,0,0,0,0,0,0,0,0,0,0,0,0,0,0,0,0,0,0,0,0,0,0,0,0,0,0,0,0,0,0,0,0,0,0,0,0,0,0,0,0,0,0,0,0,0,0,0,0,0,0,0,0,0,0,0,0,0,0,0,0,0,0,0,0,0,0,0,0,0,0,0,0,0,0,0,0,0,0,0,0,0,0,0,0,0,0,0,0,0,0,0,0,0,0,0,0,0,0,0,0,0,0,0,0,0,0,0,0,0,0,0,0,0,0,0,0,0,0,0,0,0,0,0,0,0,0,0,0,0,0,0,0,0,0,0,0,0,0,0,0,0,0,0,0,0,0,0,0,0,0,0,0,0,0,0,0,0,0,0,0,0,0,0,0,0,0,0,0,0,0,0,0,0,0,0,0,0,0,0,0,0,0,0,0,0,0,0,0,0,0,0,0,0,0,0,0,0,0,0,0,0,0,0,0,0,0,0,0,0,0,0,0,0,0,0,0,0,0,0,0,0,0,0,0,0,0,0,0,0,0,0,0,0,0,0,0,0,0,0,0,0,0,0,0,0,0,0,0,0,0,0,0,0,0,0,0,0,0,0,0,0,0,0,0,0,0,0,0,0,0,0,0,0,0,0,0,0,0,0,0,0,0,0,0,0,0,0,0,0,0,0,0,0,0,0,0,0,0,0,0,0,0,0,0,0,0,0,0,0,0,0,0,0,0,0,0,0,0,0,0,0,0,0,0,0,0,0,0,0,0,0,0,0,0,0,0,0,0,0,0,0,0,0,0,0,0,0,0,0,0,0,0,0,0,0,0,0,0,0,0,0,0,0,0,0,0,0,0,0,0,0,0,0,0,0,0,0,0,0,0,0,0,0,0,0,0,0,0,0,0,0,0,0,0,0,0,0,0,0,0,0,0,0,0,0,0,0,0,0,0,0,0,0,0,0,0,0,0,0,0,0,0,0,0,0,0,0,0,0,0,0,0,0,0,0,0,0,0,0,0,0,0,0,0,0,0,0,0,0,0,0,0,0,0,0,0,0,0,0,0,0,0,0,0,0,0,0,0,0,0,0,0,0,0,0,0,0,0,0,0,0,0,0,0,0,0,0,0,0,0,0,0,0,0,0,0,0,0,0,0,0,0,0,0,0,0,0,0,0,0,0,0,0,0,0,0,0,0,0,0,0,0,0,0,0,0,0,0,0,0,0,0,0,0,0,0,0,0,0,0,0,0,0,0,0,0,0,0,0,0,0,0,0,0,0,0,0,0,0,0,0,0,0,0,0,0,0,0,0,0,0,0,0,0,0,0,0,0,0,0,0,0,0,0,0,0,0,0,0,0,0,0,0,0,0,0,0,0,0,0,0,0,0,0,0,0,0,0,0,0,0,0,0,0,0,0,0,0,0,0,0,0,0,0,0,0,0,0,0,0,0,0,0,0,0,0,0,0,0,0,0,0,0,0,0,0,0,0,0,0,0,0,0,0,0,0,0,0,0,0,0,0,0,0,0,0,0,0,0,0,0,0,0,0,0,0,0,0,0,0,0,0,0,0,0,0,0,0,0,0,0,0,0,0,0,0,0,0,0,0,0,0,0,0,0,0,0,0,0,0,0,0,0,0,0,0,0,0,0,0,0,0,0,0,0,0,0,0,0,0,0,0,0,0,0,0,0,0,0,0,0,0,0,0,0,0,0,0,0,0,0,0,0,0,0,0,0,0,0,0,0,0,0,0,0,0,0,0,0,0,0,0,0,0,0,0,0,0,0,0,0,0,0,0,0,0,0,0,0,0,0,0,0,0,0,0,0,0,0,0,0,0,0,0,0,0,0,0,0,0,0,0,0,0,0,0,0,0,0,0,0,0,0,0,0,0,0,0,0,0,0,0,0,0,0,0,0,0,0,0,0,0,0,0,0,0,0,0,0,0,0,0,0,0,0,0,0,0,0,0,0,0,0,0,0,0,0,0,0,0,0,0,0,0,0,0,0,0,0,0,0,0,0,0,0,0,0,0,0,0,0,0,0,0,0,0,0,0,0,0,0,0,0,0,0,0,0,0,0,0,0,0,0,0,0,0,0,0,0,0,0,0,0,0,0,0,0,0,0,0,0,0,0,0,0,0,0,0,0,0,0,0,0,0,0,0,0,0,0,0,0,0,0,0,0,0,0,0,0,0,0,0,0,0,0,0,0,0,0,0,0,0,0,0,0,0,0,0,0,0,0,0,0,0,0,0,0,0,0,0,0,0,0,0,0,0,0,0,0,0,0,0,0,0,0,0,0,0,0,0,0,0,0,0,0,0,0,0,0,0,0,0,0,0,0,0,0,0,0,0,0,0,0,0,0,0,0,0,0,0,0,0,0,0,0,0,0,0,0,0,0,0,0,0,0,0,0,0,0,0,0,0,0,0,0,0,0,0,0,0,0,0,0,0,0,0,0,0,0,0,0,0,0,0,0,0,0,0,0,0,0,0,0,0,0,0,0,0,0,0,0,0,0,0,0,0,0,0,0,0,0,0,0,0,0,0,0,0,0,0,0,0,0,0,0,0,0,0,0,0,0,0,0,0,0,0,0,0,0,0,0,0,0,0,0,0,0,0,0,0,0,0,0,0,0,0,0,0,0,0,0,0,0,0,0,0,0,0,0,0,0,0,0,0,0,0,0,0,0,0,0,0,0,0,0,0,0,0,0,0,0,0,0,0,0,0,0,0,0,0,0,0,0,0,0,0,0,0,0,0,0,0,0,0,0,0,0,0,0,0,0,0,0,0,0,0,0,0,0,0,0,0,0,0,0,0,0,0,0,0,0,0,0,0,0,0,0,0,0,0,0,0,0,0,0,0,0,0,0,0,0,0,0,0,0,0,0,0,0,0,0,0,0,0,0,0,0,0,0,0,0,0,0,0,0,0,0,0,0,0,0,0,0,0,0,0,0,0,0,0,0,0,0,0,0,0,0,0,0,0,0,0,0,0,0,0,0,0,0,0,0,0,0,0,0,0,0,0,0,0,0,0,0,0,0,0,0,0,0,0,0,0,0,0,0,0,0,0,0,0,0,0,0,0,0,0,0,0,0,0,0,0,0,0,0,0,0,0,0,0,0,0,0,0,0,0,0,0,0,0,0,0,0,0,0,0,0,0,0,0,0,0,0,0,0,0,0,0,0,0,0,0,0,0,0,0,0,0,0,0,0,0,0,0,0,0,0,0,0,0,0,0,0,0,0,0,0,0,0,0,0,0,0,0,0,0,0,0,0,0,0,0,0,0,0,0,0,0,0,0,0,0,0,0,0,0,0,0,0,0,0,0,0,0,0,0,0,0,0,0,0,0,0,0,0,0,0,0,0,0,0,0,0,0,0,0,0,0,0,0,0,0,0,0,0,0,0,0,0,0,0,0,0,0,0,0,0,0,0,0,0,0,0,0,0,0,0,0,0,0,0,0,0,0,0,0,0,0,0,0,0,0,0,0,0,0,0,0,0,0,0,0,0,0,0,0,0,0,0,0,0,0,0,0,0,0,0,0,0,0,0,0,0,0,0,0,0,0,0,0,0,0,0,0,0,0,0,0,0,0,0,0,0,0,0,0,0,0,0,0,0,0,0,0,0,0,0,0,0,0,0,0,0,0,0,0,0,0,0,0,0,0,0,0,0,0,0,0,0,0,0,0,0,0,0,0,0,0,0,0,0,0,0,0,0,0,0,0,0,0,0,0,0,0,0,0,0,0,0,0,0,0,0,0,0,0,0,0,0,0,0,0,0,0,0,0,0,0,0,0,0,0,0,0,0,0,0,0,0,0,0,0,0,0,0,0,0,0,0,0,0,0,0,0,0,0,0,0,0,0,0,0,0,0,0,0,0,0,0,0,0,0,0,0,0,0,0,0,0,0,0,0,0,0,0,0,0,0,0,0,0,0,0,0,0,0,0,0,0,0,0,0,0,0,0,0,0,0,0,0,0,0,0,0,0,0,0,0,0,0,0,0,0,0,0,0,0,0,0,0,0,0,0,0,0,0,0,0,0,0,0,0,0,0,0,0,0,0,0,0,0,0,0,0,0,0,0,0,0,0,0,0,0,0,0,0,0,0,0,0,0,0,0,0,0,0,0,0,0,0,0,0,0,0,0,0,0,0,0,0,0,0,0,0,0,0,0,0,0,0,0,0,0,0,0,0,0,0,0,0,0,0,0,0,0,0,0,0,0,0,0,0,0,0,0,0,0,0,0,0,0,0,0,0,0,0,0,0,0,0,0,0,0,0,0,0</data></layer>
 <objectgroup id="3" name="Chair" draworder="topdown"><object id="10000" name="seat-interaction" gid="2562" x="512" y="630" width="32" height="64"><properties><property name="direction" type="string" value="up"/></properties></object><object id="10001" name="seat-interaction" gid="2562" x="672" y="630" width="32" height="64"><properties><property name="direction" type="string" value="up"/></properties></object><object id="10002" name="seat-interaction" gid="2562" x="832" y="630" width="32" height="64"><properties><property name="direction" type="string" value="up"/></properties></object><object id="10003" name="seat-interaction" gid="2562" x="1216" y="630" width="32" height="64"><properties><property name="direction" type="string" value="up"/></properties></object><object id="10004" name="seat-interaction" gid="2562" x="1376" y="630" width="32" height="64"><properties><property name="direction" type="string" value="up"/></properties></object><object id="10005" name="seat-interaction" gid="2562" x="1536" y="630" width="32" height="64"><properties><property name="direction" type="string" value="up"/></properties></object><object id="10006" name="seat-interaction" gid="2562" x="576" y="886" width="32" height="64"><properties><property name="direction" type="string" value="up"/></properties></object><object id="10007" name="seat-interaction" gid="2562" x="672" y="886" width="32" height="64"><properties><property name="direction" type="string" value="up"/></properties></object><object id="10008" name="seat-interaction" gid="2562" x="768" y="886" width="32" height="64"><properties><property name="direction" type="string" value="up"/></properties></object><object id="10009" name="seat-interaction" gid="2562" x="1184" y="886" width="32" height="64"><properties><property name="direction" type="string" value="up"/></properties></object><object id="10010" name="seat-interaction" gid="2562" x="1280" y="886" width="32" height="64"><properties><property name="direction" type="string" value="up"/></properties></object><object id="10011" name="seat-interaction" gid="2562" x="1376" y="886" width="32" height="64"><properties><property name="direction" type="string" value="up"/></properties></object><object id="10012" name="seat-interaction" gid="2562" x="1472" y="886" width="32" height="64"><properties><property name="direction" type="string" value="up"/></properties></object><object id="10013" name="seat-interaction" gid="2562" x="576" y="1014" width="32" height="64"><properties><property name="direction" type="string" value="up"/></properties></object><object id="10014" name="seat-interaction" gid="2562" x="672" y="1014" width="32" height="64"><properties><property name="direction" type="string" value="up"/></properties></object><object id="10015" name="seat-interaction" gid="2562" x="768" y="1014" width="32" height="64"><properties><property name="direction" type="string" value="up"/></properties></object><object id="10016" name="seat-interaction" gid="2562" x="1184" y="1014" width="32" height="64"><properties><property name="direction" type="string" value="up"/></properties></object><object id="10017" name="seat-interaction" gid="2562" x="1280" y="1014" width="32" height="64"><properties><property name="direction" type="string" value="up"/></properties></object><object id="10018" name="seat-interaction" gid="2562" x="1376" y="1014" width="32" height="64"><properties><property name="direction" type="string" value="up"/></properties></object><object id="10019" name="seat-interaction" gid="2562" x="1472" y="1014" width="32" height="64"><properties><property name="direction" type="string" value="up"/></properties></object><object id="10020" name="seat-interaction" gid="2562" x="896" y="942" width="32" height="64"><properties><property name="direction" type="string" value="up"/></properties></object><object id="10021" name="seat-interaction" gid="2562" x="896" y="990" width="32" height="64"><properties><property name="direction" type="string" value="up"/></properties></object><object id="10022" name="seat-interaction" gid="2562" x="896" y="1036" width="32" height="64"><properties><property name="direction" type="string" value="up"/></properties></object><object id="10023" name="seat-interaction" gid="2562" x="1064" y="942" width="32" height="64"><properties><property name="direction" type="string" value="up"/></properties></object><object id="10024" name="seat-interaction" gid="2562" x="1064" y="990" width="32" height="64"><properties><property name="direction" type="string" value="up"/></properties></object><object id="10025" name="seat-interaction" gid="2562" x="1064" y="1036" width="32" height="64"><properties><property name="direction" type="string" value="up"/></properties></object><object id="10026" name="seat-interaction" gid="2562" x="352" y="776" width="32" height="64"><properties><property name="direction" type="string" value="right"/></properties></object><object id="10027" name="seat-interaction" gid="2562" x="416" y="776" width="32" height="64"><properties><property name="direction" type="string" value="left"/></properties></object><object id="10028" name="seat-interaction" gid="2562" x="352" y="840" width="32" height="64"><properties><property name="direction" type="string" value="right"/></properties></object><object id="10029" name="seat-interaction" gid="2562" x="416" y="840" width="32" height="64"><properties><property name="direction" type="string" value="left"/></properties></object><object id="10030" name="seat-interaction" gid="2562" x="1632" y="776" width="32" height="64"><properties><property name="direction" type="string" value="right"/></properties></object><object id="10031" name="seat-interaction" gid="2562" x="1696" y="776" width="32" height="64"><properties><property name="direction" type="string" value="left"/></properties></object><object id="10032" name="seat-interaction" gid="2562" x="1632" y="840" width="32" height="64"><properties><property name="direction" type="string" value="right"/></properties></object><object id="10033" name="seat-interaction" gid="2562" x="1696" y="840" width="32" height="64"><properties><property name="direction" type="string" value="left"/></properties></object><object id="10034" name="seat-interaction" gid="2562" x="608" y="1232" width="32" height="64"><properties><property name="direction" type="string" value="down"/></properties></object><object id="10035" name="seat-interaction" gid="2562" x="640" y="1232" width="32" height="64"><properties><property name="direction" type="string" value="down"/></properties></object><object id="10036" name="seat-interaction" gid="2562" x="672" y="1232" width="32" height="64"><properties><property name="direction" type="string" value="down"/></properties></object><object id="10037" name="seat-interaction" gid="2562" x="574" y="1267" width="32" height="64"><properties><property name="direction" type="string" value="right"/></properties></object><object id="10038" name="seat-interaction" gid="2562" x="574" y="1299" width="32" height="64"><properties><property name="direction" type="string" value="right"/></properties></object><object id="10039" name="seat-interaction" gid="2562" x="708" y="1267" width="32" height="64"><properties><property name="direction" type="string" value="left"/></properties></object><object id="10040" name="seat-interaction" gid="2562" x="708" y="1299" width="32" height="64"><properties><property name="direction" type="string" value="left"/></properties></object><object id="10041" name="seat-interaction" gid="2562" x="608" y="1332" width="32" height="64"><properties><property name="direction" type="string" value="up"/></properties></object><object id="10042" name="seat-interaction" gid="2562" x="640" y="1332" width="32" height="64"><properties><property name="direction" type="string" value="up"/></properties></object><object id="10043" name="seat-interaction" gid="2562" x="672" y="1332" width="32" height="64"><properties><property name="direction" type="string" value="up"/></properties></object><object id="10044" name="seat-interaction" gid="2562" x="1367" y="1258" width="32" height="64"><properties><property name="direction" type="string" value="right"/></properties></object><object id="10045" name="seat-interaction" gid="2562" x="1480" y="1258" width="32" height="64"><properties><property name="direction" type="string" value="left"/></properties></object><object id="10046" name="seat-interaction" gid="2562" x="1367" y="1290" width="32" height="64"><properties><property name="direction" type="string" value="right"/></properties></object><object id="10047" name="seat-interaction" gid="2562" x="1480" y="1290" width="32" height="64"><properties><property name="direction" type="string" value="left"/></properties></object><object id="10048" name="seat-interaction" gid="2562" x="1367" y="1322" width="32" height="64"><properties><property name="direction" type="string" value="right"/></properties></object><object id="10049" name="seat-interaction" gid="2562" x="1480" y="1322" width="32" height="64"><properties><property name="direction" type="string" value="left"/></properties></object></objectgroup>
 <objectgroup id="4" name="Computer" draworder="topdown"><object id="10100" name="desk-slot" gid="4680" x="480" y="582" width="96" height="64"/><object id="10101" name="desk-slot" gid="4680" x="640" y="582" width="96" height="64"/><object id="10102" name="desk-slot" gid="4680" x="800" y="582" width="96" height="64"/><object id="10103" name="desk-slot" gid="4680" x="1152" y="582" width="96" height="64"/><object id="10104" name="desk-slot" gid="4680" x="1360" y="582" width="96" height="64"/></objectgroup>
 <objectgroup id="5" name="Wall" draworder="topdown"/>
 <objectgroup id="6" name="Objects" draworder="topdown"/>
 <objectgroup id="7" name="ObjectsOnCollide" draworder="topdown"/>
 <objectgroup id="8" name="GenericObjects" draworder="topdown"/>
 <objectgroup id="9" name="GenericObjectsOnCollide" draworder="topdown"/>
 <objectgroup id="10" name="Whiteboard" draworder="topdown"/>
 <objectgroup id="11" name="VendingMachine" draworder="topdown"/>
 <objectgroup id="12" name="Basement" draworder="topdown"/>
</map>
